assets/img/braze_icons/ticket-01.svg

<svg fill="none" height="24" viewBox="0 0 24 24" width="24" xmlns="http://www.w3.org/2000/svg"><path clip-rule="evenodd" d="m5.16146 3h13.67704c.5272-.00002.982-.00003 1.3565.03057.3954.0323.7886.10362 1.167.29641.5645.28762 1.0234.74657 1.311 1.31105.1928.37838.2641.7716.2964 1.16695.0306.37456.0306.82932.0306 1.35646v1.33856c0 .55229-.4477 1-1 1-1.3807 0-2.5 1.1193-2.5 2.5s1.1193 2.5 2.5 2.5c.5523 0 1 .4477 1 1v1.3386c0 .5271 0 .9819-.0306 1.3564-.0323.3954-.1036.7886-.2964 1.167-.2876.5645-.7465 1.0234-1.311 1.311-.3784.1928-.7716.2641-1.167.2964-.3745.0306-.8293.0306-1.3564.0306h-13.67716c-.52714 0-.9819 0-1.35646-.0306-.39535-.0323-.78857-.1036-1.16695-.2964-.56448-.2876-1.02343-.7465-1.31105-1.311-.19279-.3784-.26411-.7716-.29641-1.167-.030599-.3745-.030585-.8293-.03057-1.3564v-1.3386c0-.5523.44772-1 1-1 1.38072 0 2.5-1.1193 2.5-2.5s-1.11928-2.5-2.5-2.5c-.55228 0-1-.44771-1-1v-1.33858c-.000015-.52712-.000029-.98189.03057-1.35644.0323-.39535.10362-.78857.29641-1.16695.28762-.56448.74657-1.02343 1.31105-1.31105.37838-.19279.7716-.26411 1.16695-.29641.37455-.0306.82936-.03059 1.35648-.03057zm5.83854 3.5c0-.55228-.4477-1-1-1-.55228 0-1 .44772-1 1v1c0 .55229.44772 1 1 1 .5523 0 1-.44771 1-1zm-1 4c.5523 0 1 .4477 1 1v1c0 .5523-.4477 1-1 1-.55228 0-1-.4477-1-1v-1c0-.5523.44772-1 1-1zm1 6c0-.5523-.4477-1-1-1-.55228 0-1 .4477-1 1v1c0 .5523.44772 1 1 1 .5523 0 1-.4477 1-1z" fill="#801ed7" fill-rule="evenodd"/></svg>

<svg width="24" height="24" viewBox="0 0 24 24" fill="none" xmlns="http://www.w3.org/2000/svg">
<path fill-rule="evenodd" clip-rule="evenodd" d="M5.16146 3H18.8385C19.3657 2.99998 19.8205 2.99997 20.195 3.03057C20.5904 3.06287 20.9836 3.13419 21.362 3.32698C21.9265 3.6146 22.3854 4.07355 22.673 4.63803C22.8658 5.01641 22.9371 5.40963 22.9694 5.80498C23 6.17954 23 6.6343 23 7.16144V8.5C23 9.05229 22.5523 9.5 22 9.5C20.6193 9.5 19.5 10.6193 19.5 12C19.5 13.3807 20.6193 14.5 22 14.5C22.5523 14.5 23 14.9477 23 15.5V16.8386C23 17.3657 23 17.8205 22.9694 18.195C22.9371 18.5904 22.8658 18.9836 22.673 19.362C22.3854 19.9265 21.9265 20.3854 21.362 20.673C20.9836 20.8658 20.5904 20.9371 20.195 20.9694C19.8205 21 19.3657 21 18.8386 21H5.16144C4.6343 21 4.17954 21 3.80498 20.9694C3.40963 20.9371 3.01641 20.8658 2.63803 20.673C2.07355 20.3854 1.6146 19.9265 1.32698 19.362C1.13419 18.9836 1.06287 18.5904 1.03057 18.195C0.999971 17.8205 0.999985 17.3657 1 16.8386V15.5C1 14.9477 1.44772 14.5 2 14.5C3.38072 14.5 4.5 13.3807 4.5 12C4.5 10.6193 3.38072 9.5 2 9.5C1.44772 9.5 1 9.05229 1 8.5V7.16142C0.999985 6.6343 0.999971 6.17953 1.03057 5.80498C1.06287 5.40963 1.13419 5.01641 1.32698 4.63803C1.6146 4.07355 2.07355 3.6146 2.63803 3.32698C3.01641 3.13419 3.40963 3.06287 3.80498 3.03057C4.17953 2.99997 4.63434 2.99998 5.16146 3ZM11 6.5C11 5.94772 10.5523 5.5 10 5.5C9.44772 5.5 9 5.94772 9 6.5V7.5C9 8.05229 9.44772 8.5 10 8.5C10.5523 8.5 11 8.05229 11 7.5V6.5ZM10 10.5C10.5523 10.5 11 10.9477 11 11.5V12.5C11 13.0523 10.5523 13.5 10 13.5C9.44772 13.5 9 13.0523 9 12.5V11.5C9 10.9477 9.44772 10.5 10 10.5ZM11 16.5C11 15.9477 10.5523 15.5 10 15.5C9.44772 15.5 9 15.9477 9 16.5V17.5C9 18.0523 9.44772 18.5 10 18.5C10.5523 18.5 11 18.0523 11 17.5V16.5Z" fill="#801ED7"/>
</svg>
